X:1
T:Kalina W Lesie (polka)
M:2/4
L:1/8
K:D
|:"A"A2 cd|e2 e2|e2 ec|"A7"A2 "D"c2-|d z d |    fg a2|a2 a2|"A7"af e2|"D"a3 z |
 f2 df|"A7"g2 gf|e2 ec| "A"A2 "D"a2-|a z f2|"A7"fa g2|gf e2|    ee A2|"D"d3 z:|
|:"D"fafa|"A7"f/g/g g/f/e|f/g/g g/f/e|"D"f/a/a a/g/f|
     fafa|"A7"f/g/g g/f/e|ab/a/ gf/e/|"D"dfd     z :|
